X:1
T:Never Mind, Go On!
T:Never Mind, Go On!
T:Herbert Howard Booth
T:Richard Slater, 1886
T:Public Domain Courtesy of the Cyber Hymnal™
T:Public Domain Courtesy of the Cyber Hymnal™
C:Herbert Howard Booth
Z:Public Domain
Z:Courtesy of the Cyber Hymnal™
%%score ( 1 2 ) ( 3 4 )
L:1/8
Q:1/4=115
M:4/4
K:Ab
V:1 treble 
V:2 treble 
V:3 bass 
V:4 bass 
V:1
|:"^Allegro" [Ec]3 [DB] A3 A | [CA][DG][EA][F=A] c2 B2 | d3 c B3 B | B=AB=B [Ec]2 [C_A]2 | %4
w: 1.~In the fight, say,|does your heart grow wear- y?|Do you find your|path is rough and thorn- y?|
w: ~~~~Lay a- side all|fear, and on- ward press- ing,|Brave- ly fight, and|God will give His bless- ing;|
w: 2.~Faith- ful be, de-|lay- ing not to fol- low|Where Christ leads, though|it may be through sor- row;|
w: ~~~~Cheer- ful be, it|will your bur- dens light- en,|One glad heart will|al- ways o- thers bright- en;|
w: 3.~When down- heart- ed,|look a- way to Je- sus,|Who for you did|shed His blood most pre- cious;|
w: ~~~~Do your best in|fight- ing for your Sav- ior,|For His sake fear|not to lose men’s fa- vor;|
 [Ae]3 [Ac] [EA]3 [EA] | AGAc e2 d2 | G A3 E4 | [Ge]4 A4 :| %8
w: And a- bove the|sky is dark and storm- y?|Nev- er mind,|go on!|
w: Though the war at|times may prove dis- tress- ing,|Nev- er mind,|go on!|
w: If the strife should|fierc- er grow to- mor- row,|Nev- er mind,|go on!|
w: Though the strife the|cow- ard’s soul may fright- en,|Nev- er mind,|go on!|
w: Let us say, though|all the world should hate us;|Ne- ver mind,|go on!|
w: If be- side you|should a com- rade wa- ver,|Nev- er mind,|go on!|
"^Refrain" [Ec]>[=D=B] [Ec]>[F=d] [Ec]>[CA] [CE]2 | F>=E F>B [Fd]4 | [Gd]>[^Fc] d>e d>B [EG]2 | %11
w: |||
w: |||
w: |||
w: When the road we tread is rough,|Let us bear in mind,|In our Sav- ior strength e- nough|
w: |||
w: |||
 [DF]>[=B,=D] [CE]>[CA] [Ec]4 | e>=d e>f [Ae]>[Ec] [EA]2 | G>=E F<B [Fd]3 z/ c/ | e7/2 c/ e7/2 c/ | %15
w: ||||
w: ||||
w: ||||
w: We may al- ways find;|Though the fight- ing may be tough|Let our mot- to be: Go|on, go on to|
w: ||||
w: ||||
 B4 A4 |] %16
w: |
w: |
w: |
w: vic- to-|
w: |
w: |
V:2
|: x4 C4 | x4 F4 | E4 E4 | E2 E2 x4 | x8 | D2 C2 F4 | G A3 E4 | x4 A4 :| x8 | D2 D2 x4 | %10
 x2 G2 G2 x2 | x8 | A2 A2 x4 | D2 D2 x4 | A4 A4 | A2 G2 A4 |] %16
V:3
|: [A,,A,]4 [A,,E,]4 | E,2 [C,A,][C,E] E2 D2 | G,3 A, [E,G,]4 | G,^F, [E,G,]2 [A,,A,]4 | %4
 C3 E C3 C | [F,A,]2 A,=A, C2 B,2 | G, A,3 E,4 | [E,D]4 [A,C]4 :| %8
 [A,,A,]2 [A,,A,]2 A,>E, [A,,A,]2 | [D,A,]2 A,>F, [B,,B,]4 | B,>=A, B,>C B,2 D2 | %11
 [A,,A,]2 [A,,A,]2 [A,,A,]4 | C>=B, C>D [A,C]3/2 [C,A,]2 x/ | [D,A,]2 [D,A,]2 [B,,B,]3 z | %14
 [E,C]4 [E,C]4 | [E,D]4 [A,,C]4 |] %16
V:4
|: x8 | A,,B,, x D,4 x | E,4 x4 | E,2 x6 | A,4 _G,4 | x2 E,2 D,4 | G, A,3 E,4 | x8 :| x4 A,,2 x2 | %9
 x2 D,2 x4 | E,2 E,2 E,4 | x8 | A,2 A,2 A,/ x7/2 | x8 | x8 | x8 |] %16

